projects/gl-ng-frontend/src/assets/img/icon/menu/attachment/delete.svg

<?xml version="1.0" encoding="UTF-8"?>
<svg enable-background="new 0 0 24 24" version="1.1" viewBox="0 0 24 24" xmlns="http://www.w3.org/2000/svg">
 <style type="text/css">.st0{fill:#DD5B5B;}</style>
 <path class="st0" d="m16 7.9h-8c-0.2 0-0.3 0.1-0.3 0.3v0.1c0 0.2 0.1 0.3 0.3 0.3h8c0.2 0 0.3-0.1 0.3-0.3s-0.1-0.4-0.3-0.4z"/>
 <path class="st0" d="m8.7 17.3c0 0.2 0.1 0.3 0.3 0.3h6c0.2 0 0.3-0.1 0.3-0.3v-6.9h-6.6v6.9zm5-4.7c0-0.2 0.2-0.3 0.3-0.3 0.2 0 0.3 0.2 0.3 0.3v4.2c0 0.2-0.2 0.3-0.3 0.3-0.2 0-0.3-0.2-0.3-0.3v-4.2zm-2 0c0-0.2 0.2-0.3 0.3-0.3s0.3 0.2 0.3 0.3v4.2c0 0.2-0.2 0.3-0.3 0.3s-0.3-0.2-0.3-0.3v-4.2zm-2.1 0c0-0.2 0.2-0.3 0.3-0.3s0.3 0.2 0.3 0.3v4.2c0 0.2-0.2 0.3-0.3 0.3s-0.3-0.2-0.3-0.3v-4.2z"/>
 <path class="st0" d="m12 0c-6.6 0-12 5.4-12 12s5.4 12 12 12 12-5.4 12-12-5.4-12-12-12zm5.1 10.2v7.2c0 1.1-0.9 2.1-2.1 2.1h-6c-1.1 0-2.1-0.9-2.1-2.1v-7.2c-0.7-0.4-1-1.1-1-1.8v-0.1c0-1.1 0.9-2.1 2.1-2.1h1.8c0.3-1 1.2-1.7 2.2-1.7s2 0.7 2.2 1.7h1.8c1.2 0 2.1 0.9 2.1 2.2 0 0.8-0.3 1.4-1 1.8z"/>
</svg>

<?xml version="1.0" encoding="utf-8"?>
<!-- Generator: Adobe Illustrator 23.1.0, SVG Export Plug-In . SVG Version: 6.00 Build 0)  -->
<svg version="1.1" id="Layer_1" xmlns="http://www.w3.org/2000/svg" xmlns:xlink="http://www.w3.org/1999/xlink" x="0px" y="0px"
	 viewBox="0 0 24 24" style="enable-background:new 0 0 24 24;" xml:space="preserve">
<style type="text/css">
	.st0{fill:#DD5B5B;}
</style>
<g>
	<path class="st0" d="M21,0H3.1C1.4,0,0,1.4,0,3.1v17.7C0,22.6,1.4,24,3.1,24h17.8c1.7,0,3.1-1.4,3.1-3.1V3.1C24.1,1.4,22.7,0,21,0z
		 M17.1,10.2v7.2c0,1.1-0.9,2.1-2.1,2.1H9c-1.1,0-2.1-0.9-2.1-2.1v-7.2c-0.7-0.4-1-1.1-1-1.8V8.3c0-1.1,0.9-2.1,2.1-2.1h1.8
		c0.3-1,1.2-1.7,2.2-1.7s2,0.7,2.2,1.7H16c1.2,0,2.1,0.9,2.1,2.2C18.1,9.2,17.8,9.8,17.1,10.2z"/>
	<path class="st0" d="M16,7.9H8C7.8,7.9,7.7,8,7.7,8.2v0.1c0,0.2,0.1,0.3,0.3,0.3h8c0.2,0,0.3-0.1,0.3-0.3S16.2,7.9,16,7.9z"/>
	<path class="st0" d="M8.7,17.3c0,0.2,0.1,0.3,0.3,0.3h6c0.2,0,0.3-0.1,0.3-0.3v-6.9H8.7V17.3z M13.7,12.6c0-0.2,0.2-0.3,0.3-0.3
		c0.2,0,0.3,0.2,0.3,0.3v4.2c0,0.2-0.2,0.3-0.3,0.3c-0.2,0-0.3-0.2-0.3-0.3V12.6z M11.7,12.6c0-0.2,0.2-0.3,0.3-0.3s0.3,0.2,0.3,0.3
		v4.2c0,0.2-0.2,0.3-0.3,0.3s-0.3-0.2-0.3-0.3V12.6z M9.6,12.6c0-0.2,0.2-0.3,0.3-0.3c0.1,0,0.3,0.2,0.3,0.3v4.2
		c0,0.2-0.2,0.3-0.3,0.3c-0.1,0-0.3-0.2-0.3-0.3V12.6z"/>
</g>
</svg>
